X: 4
T: Farewell To Milltown
R: reel
M: 4/4
L: 1/8
K: Gdor
|:DGGF G2GA | BGGF GFDE | F2CF DFCF | DFFG FDCF |DGGF G2GA | BGGF GFDE | F2cF dFcF |1 AdcA G2GF :|2 AdcA GABc||:dggd gdga | bggf gfde | f2 fe fccc | fgaf gfdc |dggd gdga | bggf gfde | fddf dcAG |1 AdcA GABc :|2 FdcA G2GF ||


Tune 539	Setting 539

